X:83
T:Don Pedro
M:2/4
L:1/8
B:Thompson's Compleat Collection of 200 Favourite Country Dances, vol. 2 (London, 1765)
Z:Transcribed and edited by Flynn Titford-Mock, 2007
Z:abc's:AK/Fiddler's Companion
K:A
a | ecAf | "tr"f2 ea | ecAc | "tr"B2 Ba | ecAf | "tr"f2 ea | ecdB | A3 :|
|: e | cefe | aedc | bgec | d "tr"B2e | cefe | aedc | fdcB | A3 :|

